X:8
T:2025-3-28
T:D'Accord! (Minor)
M:4/4
L:1/8
K:Am
Acae c2 c2 | Bcde d2 E2 | FGAB cdef | g2 e2 a2 e2 |
Acae c2 c2 | Bcde d2 D2 | EFGA Bcde | fgaf d4 :|
e2 e2 ce A2 | e2 e2 ce G2 | ABcd e2 de | gfe^d c2A2 |
e2 e2 ^ce A2 | e2 e2 ce G2 | ABcd e2 de | gfed c4 :|

